X:76
T:Drowsy Maggie
R:Reel
M:4/4
L:1/8
K:D
|:E2BE dEBE|E2BE AFDF|E2BE BEBE|BABc dAFD|
|E2BE dEBE|E2BE AFDF|E2BE dEBE|BABc dAFA|
|d2fdc2ec|defg afge|d2fdc2ec|BABc dAFA|
|d2fdc2ec|defg afge|afge fdec|BABc dAFD:|
